**kern	**kern
*staff2	*staff1
*clefF4	*clefG2
*k[b-e-a-]	*k[b-e-a-]
*M3/4	*M3/4
*c:	*c:
=	=
12E-L	([4gg
12G	.
12B-J	.
12GL	12ggL]
12B-	12ee-
12e-J	12ffJ
*clefG2	*
12B-L	12ggL
12e-	12ee-
12gJ	12ffJ)
=78	=78
12e-L	[4gg
12g	.
12b-J	.
12dL	12ggL]
12g	(12gg
12bJ	12ffJ
12cL	12ee-L)
12g	12dd
12ccJ	12ee-J)
=79	=79
12A-L	([4ff
12c	.
12fJ	.
12A-L	12ffL]
12c	12dd
12fJ	12ee-J
12A-L	12ffL
12c	12dd
12fJ	12ee-J)
=80	=80
12GL	[4ff
12B	.
12fJ	.
12AL	12ffL]
12c	(12ff
12fJ	12ee-J
12BL	12ddL)
12f	12cc
12GJ	12ddJ)
=81	=81
12cL	[4ee-
12e-	.
12gJ	.
*clefF4	*
12GL	12ee-L]
12c	(12b
12e-J	12ccJ
12FL	12ddL
12B	12ee-
12dJ	12ffJ)
=82	=82
12E-L	4gg
12G	.
12cJ	.
12EL	([4ccc)
12G	.
12cJ	.
12EL	12cccL]
12B-	12gg
12cJ	12bb-J)
=83	=83
12FL	(12aa-L
12A-	12ff
12d-J	12dd-J)
12GL	4cc
12c	.
12e-J	.
12GL	4b
12d	.
12fJ	.
=84	=84
12cL	(4b 4dd
12f	.
12gJ	.
8c 8e-	8cc)
8r	8r
4r	4r
=85||	=85||
*-	*-
